site/corp/images/icons/icon-insurance3.svg

<?xml version="1.0" encoding="UTF-8"?>
<svg width="110px" height="120px" viewBox="0 0 110 120" version="1.1" xmlns="http://www.w3.org/2000/svg" xmlns:xlink="http://www.w3.org/1999/xlink">
    <!-- Generator: Sketch 49 (51002) - http://www.bohemiancoding.com/sketch -->
    <title>icon</title>
    <desc>Created with Sketch.</desc>
    <defs>
        <path d="M50,48.7656276 C63.3056641,25.8161945 100,31.4352926 100,66.5742207 C100,101.713149 50,120 50,120 C50,120 1.19511329e-15,101.713149 0,66.5742207 C0,31.4352926 36.6943359,25.8161945 50,48.7656276 Z" id="path-1"></path>
        <circle id="path-2" cx="25" cy="25" r="25"></circle>
    </defs>
    <g id="1260" stroke="none" stroke-width="1" fill="none" fill-rule="evenodd">
        <g id="1260-ipoteka-insurance" transform="translate(-840.000000, -620.000000)">
            <g id="body" transform="translate(40.000000, 240.000000)">
                <g id="how-to" transform="translate(0.000000, 300.000000)">
                    <g id="Group-4" transform="translate(800.000000, 80.000000)">
                        <g id="icon">
                            <rect id="Rectangle-3" opacity="0.5" x="0" y="0" width="120" height="120"></rect>
                            <g id="Combined-Shape">
                                <use fill="#FFFFFF" fill-rule="evenodd" xlink:href="#path-1"></use>
                                <path stroke="#FDCE34" stroke-width="2" d="M50.0000526,118.931059 C50.0599907,118.908012 50.1262987,118.882369 50.1988553,118.854133 C50.6495658,118.678733 51.1734525,118.468085 51.7643974,118.22229 C53.4567589,117.518377 55.344177,116.675027 57.3776719,115.69312 C63.1885192,112.887255 68.9991689,109.537005 74.4172343,105.651568 C89.8067601,94.6153344 99,81.5618083 99,66.5742207 C99,50.7733309 91.2919359,39.9769187 79.7287483,36.8521611 C68.7855879,33.8949554 57.012766,38.6638141 50.8651131,49.2672044 L50,50.75934 L49.1348869,49.2672044 C42.987234,38.6638141 31.2144121,33.8949554 20.2712517,36.8521611 C8.70806406,39.9769187 1,50.7733309 1,66.5742207 C1,81.5618083 10.1932399,94.6153344 25.5827657,105.651568 C31.0008311,109.537005 36.8114808,112.887255 42.6223281,115.69312 C44.655823,116.675027 46.5432411,117.518377 48.2356026,118.22229 C48.8265475,118.468085 49.3504342,118.678733 49.8011447,118.854133 C49.8716222,118.88156 49.9379479,118.907203 50.0000526,118.931059 Z"></path>
                            </g>
                            <polyline id="Path-3" stroke="#FDCE34" stroke-width="2" points="14 80 44 80 48 90 53 69 57 80 86.1478792 80.297462"></polyline>
                            <g id="check" transform="translate(60.000000, 0.000000)">
                                <g id="Oval-2">
                                    <use fill="#FFFFFF" fill-rule="evenodd" xlink:href="#path-2"></use>
                                    <circle stroke="#319018" stroke-width="2" cx="25" cy="25" r="24"></circle>
                                </g>
                                <path d="M13,22.6666667 C15.0058976,25.1334172 18.1170087,28.7630469 22.3333333,33.5555556 C27.2301632,26.2276482 33.4523854,21.042463 41,18" id="Path-7" stroke="#319018" stroke-width="2"></path>
                            </g>
                        </g>
                    </g>
                </g>
            </g>
        </g>
    </g>
</svg>

<svg width="110" height="120" viewBox="0 0 110 120" xmlns="http://www.w3.org/2000/svg" xmlns:xlink="http://www.w3.org/1999/xlink"><title>icon</title><defs><path d="M50 48.766c13.306-22.95 50-17.33 50 17.808C100 101.714 50 120 50 120S0 101.713 0 66.574s36.694-40.758 50-17.808z" id="a"/><circle id="b" cx="25" cy="25" r="25"/></defs><g fill="none" fill-rule="evenodd"><path opacity=".5" d="M0 0h120v120H0z"/><use fill="#FFF" xlink:href="#a"/><path stroke="#FDCE34" stroke-width="2" d="M50 118.931l.199-.077c.45-.175.974-.386 1.565-.632 1.693-.704 3.58-1.547 5.614-2.529 5.81-2.806 11.621-6.156 17.04-10.041C89.806 94.615 99 81.562 99 66.574c0-15.8-7.708-26.597-19.271-29.722-10.943-2.957-22.716 1.812-28.864 12.415L50 50.76l-.865-1.492c-6.148-10.603-17.92-15.372-28.864-12.415C8.708 39.977 1 50.773 1 66.574c0 14.988 9.193 28.041 24.583 39.078 5.418 3.885 11.228 7.235 17.04 10.041 2.033.982 3.92 1.825 5.613 2.53a73.898 73.898 0 0 0 1.764.708z"/><path stroke="#FDCE34" stroke-width="2" d="M14 80h30l4 10 5-21 4 11 29.148.297"/><g transform="translate(60)"><use fill="#FFF" xlink:href="#b"/><circle stroke="#319018" stroke-width="2" cx="25" cy="25" r="24"/></g><path d="M73 22.667c2.006 2.466 5.117 6.096 9.333 10.889C87.23 26.228 93.453 21.042 101 18" stroke="#319018" stroke-width="2"/></g></svg>
